X:1
T:National Anthem (3-part)
T:National Anthem (3-part)
%%score 1 2 3
L:1/8
Q:1/4=75
M:3/4
K:F
V:1 treble nm="Soprano" snm="S."
V:2 treble nm="Mezzo-soprano" snm="Mzs."
V:3 treble nm="Alto" snm="A."
V:1
 z2 | z6 | z6 | z6 | z4 CC | A3 G F2 | E4 D>E | F2 F2 C2 | A,2 F,2 CA, | F,2 F2 E2 | A4 B>B | %11
w: ||||what so|proud- ly we|hailed at the|twi- light's last|gleam- ing whose broad|stripes and bright|stars through the|
 A2 F2 A2 | G4 GG | c3 B A2 | G4 F>G | A2 A2 F2 | C2 C2 A>A | c2 c2 ^c2 | d4 dc | B2 c2 d2 | %20
w: per- i- lous|fight or the|ram- parts we|watched we're so|gal- lant- ly|stream- ing and the|rock- ets red|glare the bombs|burs- ting in|
 _d4 B2 | A3 G F2 | E4 DE | F2 A2 =B2 | c6- |[M:4/4] c4 z2 (cB) |[M:3/4] A2 A2 (AG) | F2 F2 ^F2 | %28
w: air gave|proof through the|night that our|flag was still|there.|_ Oh _|say does that _|star span- gled|
 B2 (dc) (BA) |[M:6/4] c8 z2 CC |[M:3/4] (F3 G) AB |[M:5/4] c2 c2 !breath!d4 BB |[M:4/4] c3 d c4 | %33
w: ban- ner _ yet _|wave o'er the|land _ of the|free, the free, and the|home of the|
 c8 |] %34
w: brave|
V:2
 z2 | z6 | z4 A>G | F2 A,2 =B,2 | C4 z2 | z6 | z4 D>E | F2 F2 C2 | A,2 F,2 CA, | F,2 A,2 C2 | %10
w: ||by the|dawn's ear- ly|light||at the|twi- light's last|gleam- ing whose broad|stripes and bright|
 F4 A>G | F2 A,2 =B,2 | C4 CC | A3 G F2 | E4 D>E | F2 F2 C2 | A,2 A,2 F>F | A2 B2 A2 | A4 BA | %19
w: stars through the|per- i- lous|fight or the|ram- parts we|watched we're so|gal- lant- ly|stream- ing and the|rock- ets red|glare the bombs|
 G2 A2 B2 | B4 G2 | F3 E D2 | ^C4 DE | F2 A2 =B2 | z2 F2 A2 |[M:4/4] G4 z2 G2 |[M:3/4] F2 F2 (FE) | %27
w: burs- ting in|air gave|proof through the|night that our|flag was still,|was still|there Oh|say does that _|
 D2 D2 D2 | G2 (BA) (GF) |[M:6/4] (A4 G4) z2 CC |[M:3/4] F4 FG |[M:5/4] A2 G2 !breath!B4 FG | %32
w: star span- gled|ban- ner _ yet _|wave _ o'er the|land of the|free, the free, and the|
[M:4/4] A3 B G4 | A8 |] %34
w: home of the|brave|
V:3
 (CA,) | F,2 A,2 C2 | F4 z2 | z6 | z6 | z6 | z4 B,>B, | C2 F2 C2 | A,2 F,2 CA, | F,2 C2 G,2 | %10
w: Oh _|say can you|see||||at the|twi- light's last|gleam- ing whose broad|stripes and bright|
 D4 ^C>C | D2 D2 D2 | E4 EE | F3 D D2 | C4 B,>B, | C2 C2 A,2 | F,2 F,2 C>C | F2 E2 G2 | ^F4 FF | %19
w: stars through the|per- i- lous|fight or the|ram- parts we|watched we're so|gal- lant- ly|stream- ing and the|rock- ets red|glare the bombs|
 D2 F2 F2 | E4 _D2 | D3 B, A,2 | A,4 DE | F2 A,2 =B,2 | z2 D2 F2 |[M:4/4] E4 z2 E2 | %26
w: burs- ting in|air gave|proof through the|night that our|flag was still|was still|there Oh|
[M:3/4] C2 C2 C2 | B,2 B,2 A,2 | D2 (GF) D2 |[M:6/4] (F4 E4) z2 CC |[M:3/4] (F3 E) FF | %31
w: say does that|star span- gled|ban- ner _ yet|wave _ o'er the|land _ of the|
[M:5/4] F2 E2 !breath!F4 ^CC |[M:4/4] F3 F (F2 E2) | F8 |] %34
w: free, the free, and the|home of the _|brave|

